www/assets/icons/fax.svg

<svg xmlns="http://www.w3.org/2000/svg" width="24" height="24" viewBox="0 0 24 24" fill='currentColor'><path d="M19 8.5h-1v-5H8v16h14v-8c0-1.66-1.34-3-3-3m-9-3h6v3h-6zm4 11h-4v-5h4zm2 0c-.55 0-1-.45-1-1s.45-1 1-1 1 .45 1 1-.45 1-1 1m0-3c-.55 0-1-.45-1-1s.45-1 1-1 1 .45 1 1-.45 1-1 1m3 3c-.55 0-1-.45-1-1s.45-1 1-1 1 .45 1 1-.45 1-1 1m0-3c-.55 0-1-.45-1-1s.45-1 1-1 1 .45 1 1-.45 1-1 1m-14.5-6A2.5 2.5 0 0 0 2 10v8a2.5 2.5 0 0 0 5 0v-8a2.5 2.5 0 0 0-2.5-2.5"/></svg>

<svg width="24" height="24" viewBox="0 0 24 24" xmlns="http://www.w3.org/2000/svg" fill='currentColor'><path d="M19 8.5H18V3.5H8V19.5H22V11.5C22 9.84 20.66 8.5 19 8.5ZM10 5.5H16V8.5H10V5.5ZM14 16.5H10V11.5H14V16.5ZM16 16.5C15.45 16.5 15 16.05 15 15.5C15 14.95 15.45 14.5 16 14.5C16.55 14.5 17 14.95 17 15.5C17 16.05 16.55 16.5 16 16.5ZM16 13.5C15.45 13.5 15 13.05 15 12.5C15 11.95 15.45 11.5 16 11.5C16.55 11.5 17 11.95 17 12.5C17 13.05 16.55 13.5 16 13.5ZM19 16.5C18.45 16.5 18 16.05 18 15.5C18 14.95 18.45 14.5 19 14.5C19.55 14.5 20 14.95 20 15.5C20 16.05 19.55 16.5 19 16.5ZM19 13.5C18.45 13.5 18 13.05 18 12.5C18 11.95 18.45 11.5 19 11.5C19.55 11.5 20 11.95 20 12.5C20 13.05 19.55 13.5 19 13.5Z"/><path d="M4.5 7.5C3.12 7.5 2 8.62 2 10V18C2 19.38 3.12 20.5 4.5 20.5C5.88 20.5 7 19.38 7 18V10C7 8.62 5.88 7.5 4.5 7.5Z"/></svg>
